img/interventions/thumb.svg

<svg fill="none" height="150" viewBox="0 0 285 150" width="285" xmlns="http://www.w3.org/2000/svg"><path d="m0 0h284.899v150h-284.899z" fill="#36508a"/><path clip-rule="evenodd" d="m102.253 70.0545c-.198-.0049-.387-.0862-.526-.2268-.071-.069-.127-.1507-.166-.2413-.039-.0905-.06-.1881-.061-.2865v-13.1358h-4.7847c-.0982-.0007-.1955-.0211-.2863-.0601-.0903-.0389-.1718-.0957-.2402-.1668-.0714-.0683-.1284-.1501-.1683-.2407s-.0614-.1881-.0631-.287v-4.6337c.0043-.1997.0876-.3895.2314-.5278.0666-.0749.1473-.1356.238-.1783.0903-.0426.1885-.0663.2885-.0697h16.7757c.098.0013.196.0219.286.0609.09.0389.172.0953.241.1661.07.0686.126.1507.165.2412.039.0906.059.1879.061.2865v4.6178c-.002.2048-.083.4008-.229.5451-.145.1444-.341.2254-.545.2254h-4.737v13.1569c-.002.0984-.022.196-.061.2865-.039.0906-.095.1723-.166.2413-.139.1411-.328.2224-.526.2268zm15.96 0c-.205-.0027-.4-.0853-.544-.2303-.145-.145-.227-.3406-.23-.5454v-18.503c.004-.1997.088-.3895.232-.5278.068-.0711.149-.1278.24-.1668.09-.039.188-.0594.286-.0601h14.676c.098.0007.196.0211.286.0601s.172.0957.24.1668c.144.1383.227.3281.232.5278v4.0425c-.004.2045-.087.3995-.232.5441-.144.1447-.338.2277-.542.2317h-8.58v1.7942h7.948c.2.0048.389.0883.527.2325.071.0677.128.1499.167.2404.039.091.059.1885.059.2874v3.7256c-.001.0989-.021.1965-.06.287s-.095.1727-.166.2408c-.138.1442-.327.2277-.527.2325h-7.948v1.8046h8.806c.199.0048.389.0883.526.2325.071.0681.128.1503.167.2408.039.0906.059.1881.06.2866v4.0429c-.001.0984-.022.196-.061.2865s-.095.1723-.166.2413c-.139.1406-.328.2219-.526.2268zm20.197 0c-.204-.0027-.399-.0853-.544-.2303-.144-.145-.227-.3406-.229-.5454v-18.503c.004-.1997.087-.3895.231-.5278.068-.0716.15-.1286.24-.1677.091-.039.188-.0591.287-.0592h8.464c2.747 0 4.893.6175 6.437 1.8524.763.6089 1.37 1.3904 1.773 2.2803.402.8899.588 1.8628.543 2.8389.024 1.1489-.261 2.2828-.826 3.2826-.558.9489-1.334 1.7505-2.263 2.3377l3.521 6.5392c.053.0954.082.2022.084.3112 0 .1678-.066.3291-.185.4478-.118.1187-.279.1855-.446.1855h-5.849c-.29.0167-.576-.069-.81-.2426-.182-.1376-.325-.3191-.416-.5279l-2.464-5.4782h-1.168v5.4519c-.008.2013-.093.3916-.237.5318-.144.1406-.336.2201-.537.2228zm8.465-11.7002c.183.011.366-.0211.535-.0932.169-.0725.319-.1832.438-.3239.238-.2988.359-.6737.342-1.0554.008-.3942-.106-.7813-.326-1.1082-.112-.1559-.261-.2807-.435-.3628-.172-.0822-.363-.119-.554-.1069h-2.106v3.0399zm12.817 5.9055c-.099-.0005-.196-.0211-.286-.0602-.09-.0387-.172-.0954-.24-.1666-.072-.0686-.129-.1503-.169-.2408-.04-.0906-.061-.1882-.063-.287v-4.0689c.004-.2048.087-.3995.231-.544.144-.1446.339-.2277.543-.2321h9.28c.204.0044.398.0875.543.2321.144.1445.227.3392.231.544v4.0741c-.002.0989-.024.1965-.064.287-.039.0906-.096.1723-.168.2409-.068.0712-.15.1279-.24.1665-.09.0392-.188.0598-.286.0602zm-27.546 35.2205c.144.1437.339.2259.542.2286h5.743c.204-.0014.398-.0831.542-.2273.144-.1441.225-.3392.227-.5432v-13.1676h4.737c.199-.0044.389-.0879.526-.2321.072-.0685.128-.1503.167-.2408.039-.091.059-.1885.06-.287v-4.6177c-.001-.0989-.021-.1965-.06-.287-.039-.0906-.095-.1723-.167-.2409-.137-.1441-.327-.2276-.526-.232h-16.76c-.204.0039-.398.087-.542.2316-.145.1446-.227.3397-.232.5441v4.6177c.005.2044.087.3995.232.5441.144.1446.338.2277.542.2316h4.738v13.136c.004.204.087.3982.231.5419zm15.961.0013c.143.1442.338.2259.541.2273h5.838c.203-.0027.398-.0849.542-.2286.145-.1437.228-.3379.232-.5419v-18.5294c-.004-.2044-.087-.3995-.231-.5441s-.339-.2277-.543-.2316h-5.838c-.203.0039-.397.087-.54.232-.144.1446-.225.3398-.228.5437v18.5294c.001.204.083.3991.227.5432zm13.611-1.4617c1.699 1.3193 3.98 1.979 6.844 1.979 2.852 0 5.128-.6597 6.827-1.979 1.698-1.3194 2.606-3.2422 2.721-5.7684.053-1.0287.053-1.8574.053-2.4907v-.0003c0-.6333-.016-1.4987-.053-2.5543-.02-1.504-.474-2.9697-1.305-4.2218-.829-1.2016-1.986-2.1381-3.332-2.6967-3.166-1.2227-6.672-1.2227-9.838 0-1.347.5586-2.503 1.4951-3.332 2.6967-.832 1.2512-1.284 2.7183-1.301 4.2218-.031.5384-.031 1.4094-.031 2.5543 0 .682.011 1.2479.02 1.7056v.0002.0002.0004.0004c.006.3104.011.571.011.7842.113 2.5262 1.018 4.449 2.716 5.7684zm7.667-3.741c-.262.0989-.543.142-.823.1262-.282.0162-.563-.0264-.827-.1257-.264-.0989-.504-.2523-.705-.4496-.411-.4861-.622-1.1106-.59-1.747-.026-.5542-.026-1.3668-.026-2.4383 0-.6289.009-1.1579.017-1.5943v-.0002-.0007-.0012c.005-.306.009-.5665.009-.7839-.032-.6403.185-1.2684.606-1.7518.42-.3674.958-.57 1.516-.57.557 0 1.096.2026 1.515.57.417.4852.632 1.1123.601 1.7518.057 1.0346.057 1.863.057 2.3803s-.021 1.3299-.057 2.4383c.032.6364-.179 1.2609-.59 1.747-.2.1969-.44.3502-.703.4491zm12.705 5.1764c.144.1441.339.2259.542.2272l5.159.0264c.203-.0027.398-.0849.542-.2286s.227-.3379.231-.5419v-7.2147l4.832 7.3097c.117.1762.263.3313.432.4588.217.1499.479.2206.742.2008h4.517c.098-.0013.195-.0219.285-.0611.091-.0386.173-.0953.241-.1661.071-.0681.128-.1503.167-.2408.038-.0906.059-.1881.059-.2866v-18.5452c0-.0989-.021-.1965-.059-.287-.039-.0906-.096-.1723-.167-.2409-.138-.1441-.327-.2276-.526-.232h-5.175c-.204.0039-.398.087-.542.2316-.145.1446-.228.3397-.232.5441v7.8317l-4.832-7.9477c-.111-.207-.279-.3784-.482-.4949-.204-.1165-.436-.1736-.67-.1648h-4.522c-.203.0039-.398.087-.541.232-.143.1446-.225.3398-.227.5437v18.5026c.001.2039.082.3995.226.5437zm25.271-.3165c1.646.596 3.388.8782 5.138.8338l.021.0263c1.652.0381 3.297-.2285 4.853-.7862 1.322-.4677 2.493-1.2847 3.39-2.3645.816-1.0091 1.252-2.2739 1.232-3.5726.046-1.1093-.226-2.208-.784-3.1666-.614-.9247-1.499-1.6362-2.532-2.037-1.473-.5802-3.017-.9564-4.59-1.119-.852-.076-1.691-.2531-2.501-.5278-.447-.1899-.673-.4325-.673-.7177 0-.5384.457-.8021 1.373-.8021.554-.0193 1.094.1688 1.516.5279.156.1454.333.265.527.3533.199.0782.412.1143.626.1055h5.743c.079-.0013.156-.0189.228-.0514.071-.033.135-.08.188-.1385.059-.0575.106-.1261.138-.2026.031-.076.047-.1582.046-.2408-.087-1.0016-.487-1.9505-1.142-2.7126-.839-1.0104-1.911-1.8019-3.122-2.306-1.495-.6425-3.111-.9559-4.737-.9185-1.557-.029-3.103.2545-4.548.8341-1.221.4787-2.285 1.2878-3.074 2.3377-.733.9893-1.121 2.1926-1.106 3.425 0 3.5748 2.457 5.6857 7.37 6.333.994.0954 1.978.2734 2.942.5332.511.1845.769.4487.769.7915 0 .2465-.195.4417-.584.5858-.51.1626-1.045.236-1.58.2163-.756.0281-1.499-.2048-2.105-.6597-.177-.1569-.375-.2866-.59-.385-.205-.0752-.424-.1095-.642-.1002h-5.438c-.082-.0013-.164.0145-.24.0461-.076.0317-.145.0787-.201.1385-.059.058-.105.127-.137.203s-.048.1578-.048.2404c.039 1.1115.43 2.1817 1.116 3.0554.829 1.0174 1.922 1.7861 3.158 2.222zm-139.5497.2847c.2391.2017.5462.3037.8578.2852h6.5223c.3113.0163.6177-.0852.8579-.2852.2008-.1754.3485-.4039.4265-.6597l5.4058-18.2706v-.2004c-.0013-.1665-.0675-.3261-.1845-.4447-.1171-.1183-.2758-.1859-.4419-.1886h-5.3216c-.3126-.0162-.6194.0879-.8583.2901-.2004.1767-.3498.4048-.4314.6597l-2.716 10.666-2.7165-10.666c-.0772-.2642-.2266-.5019-.4314-.6861-.2389-.203-.5457-.3068-.8581-.2901h-5.2902c-.0836-.0008-.1664.0159-.2434.0484-.0769.0325-.1464.0809-.204.1415-.0592.0576-.1061.1266-.1377.2026-.0317.0761-.0476.1582-.0466.2409v.2004l5.3797 18.2969c.0818.2549.231.483.4316.6597zm17.6745.2246c.0903.0391.1876.0597.2858.0606l14.8914-.0158c.203-.0013.398-.0831.542-.2272.144-.1442.225-.3393.226-.5432v-4.0482c0-.0984-.021-.196-.06-.2865-.039-.0906-.095-.1728-.166-.2409-.068-.0712-.15-.1279-.24-.167s-.188-.0593-.286-.0602h-8.8121v-1.8314h7.9382c.2029-.0013.3979-.083.5419-.2272.144-.1441.225-.3393.227-.5432v-3.7313c-.001-.0984-.022-.196-.061-.2865-.038-.091-.095-.1728-.166-.2409-.068-.0716-.15-.1292-.24-.1692-.09-.0395-.1875-.0611-.2861-.0633h-7.954v-1.805h8.5961c.098-.0004.196-.0211.286-.0597.091-.0391.172-.0958.241-.167.143-.1385.227-.3279.231-.5279v-4.0424c-.004-.2044-.087-.3995-.231-.5441s-.339-.2277-.543-.2316h-14.6754c-.0986.0017-.196.0233-.2863.0633s-.1718.0971-.2402.1687c-.071.0686-.1275.1503-.1661.2409-.039.0909-.0596.1881-.0601.287v18.5452c.0005.0985.0211.196.0601.2866.0386.0909.0951.1727.1661.2408.0684.0712.1504.1279.2407.1666zm19.9412-.1679c.144.1437.338.2259.542.2285h5.179c.204-.0013.398-.083.543-.2272.143-.1441.225-.3393.226-.5432v-7.1989l4.838 7.2938c.116.1749.26.3301.426.4589.22.1489.483.2197.747.2008h4.496c.098 0 .196-.0202.286-.0593.091-.0391.172-.0963.24-.1679.072-.0681.129-.1499.169-.2404s.061-.1881.063-.287v-18.5294c-.002-.0989-.023-.1969-.063-.2875-.04-.0905-.097-.1723-.169-.2404-.067-.072-.149-.1301-.24-.1701-.09-.04-.188-.061-.286-.0619h-5.175c-.199.0044-.388.0879-.526.232-.071.0686-.128.1503-.167.2409-.038.0909-.059.1881-.059.287v7.8317l-4.833-7.9478c-.113-.2096-.284-.3828-.491-.4997-.208-.1169-.445-.1723-.683-.16h-4.521c-.204.004-.399.0871-.543.2317s-.227.3397-.231.5441v18.5294c.004.2039.087.3982.232.5419zm-42.0813-29.6565c.1446.145.3398.2277.5442.2303h5.8375c.1986-.0035.3875-.0853.5265-.2268.0705-.0685.1267-.1507.1657-.2413.0385-.0905.0592-.1881.0605-.2865v-18.524c-.0013-.0986-.022-.1959-.0605-.2865-.039-.0906-.0952-.1726-.1657-.2413-.0684-.0711-.1499-.1279-.2402-.1668-.0903-.039-.1877-.0595-.2863-.0601h-5.8533c-.0984.0006-.1957.0211-.2861.0601-.0904.0389-.1721.0957-.2403.1668-.1439.1383-.2271.3281-.2316.5278v18.5029c.0027.2048.0851.4008.2296.5454zm11.6437 0c.1447.145.3398.2277.544.2303h5.1954c.1982-.004.3871-.0857.5265-.2268.0706-.0685.1267-.1507.1657-.2413.0386-.0905.0596-.1881.0605-.2865v-7.1985l4.8377 7.2934c.1148.1763.259.3318.4265.4593.2187.1459.4795.2162.7421.2004h4.5217c.195-.0101.3796-.0936.5168-.2329.1372-.1398.2178-.3257.2253-.5217v-18.524c-.0044-.1997-.0877-.3895-.2315-.5278-.0683-.0711-.1499-.1279-.2406-.1668-.0903-.039-.1876-.0595-.2858-.0601h-5.1796c-.0987.001-.1955.0215-.2863.0605-.0903.0389-.1718.0955-.2402.1664-.0706.0687-.1267.1507-.1657.2413s-.0596.1879-.0605.2865v7.8267l-4.8535-7.9217c-.1117-.2101-.2814-.3838-.4883-.5007s-.4432-.172-.6803-.159h-4.5217c-.0981.0006-.1955.0211-.2862.0601-.0903.0389-.1718.0957-.2402.1668-.1438.1383-.2271.3281-.2315.5278v18.5029c.0027.2048.0851.4008.2297.5454z" fill="#fff" fill-rule="evenodd"/></svg>

<svg width="285" height="150" viewBox="0 0 285 150" fill="none" xmlns="http://www.w3.org/2000/svg">
<rect width="284.899" height="150" fill="#36508A"/>
<path fill-rule="evenodd" clip-rule="evenodd" d="M102.253 70.0545C102.055 70.0496 101.866 69.9683 101.727 69.8277C101.656 69.7587 101.6 69.677 101.561 69.5864C101.522 69.4959 101.501 69.3983 101.5 69.2999V56.1641H96.7153C96.6171 56.1634 96.5198 56.143 96.429 56.104C96.3387 56.0651 96.2572 56.0083 96.1888 55.9372C96.1174 55.8689 96.0604 55.7871 96.0205 55.6965C95.9806 55.6059 95.9591 55.5084 95.9574 55.4095V50.7758C95.9617 50.5761 96.045 50.3863 96.1888 50.248C96.2554 50.1731 96.3361 50.1124 96.4268 50.0697C96.5171 50.0271 96.6153 50.0034 96.7153 50H113.491C113.589 50.0013 113.687 50.0219 113.777 50.0609C113.867 50.0998 113.949 50.1562 114.018 50.227C114.088 50.2956 114.144 50.3777 114.183 50.4682C114.222 50.5588 114.242 50.6561 114.244 50.7547V55.3725C114.242 55.5773 114.161 55.7733 114.015 55.9176C113.87 56.062 113.674 56.143 113.47 56.143H108.733V69.2999C108.731 69.3983 108.711 69.4959 108.672 69.5864C108.633 69.677 108.577 69.7587 108.506 69.8277C108.367 69.9688 108.178 70.0501 107.98 70.0545H102.253ZM118.213 70.0545C118.008 70.0518 117.813 69.9692 117.669 69.8242C117.524 69.6792 117.442 69.4836 117.439 69.2788V50.7758C117.443 50.5761 117.527 50.3863 117.671 50.248C117.739 50.1769 117.82 50.1202 117.911 50.0812C118.001 50.0422 118.099 50.0218 118.197 50.0211H132.873C132.971 50.0218 133.069 50.0422 133.159 50.0812C133.249 50.1202 133.331 50.1769 133.399 50.248C133.543 50.3863 133.626 50.5761 133.631 50.7758V54.8183C133.627 55.0228 133.544 55.2178 133.399 55.3624C133.255 55.5071 133.061 55.5901 132.857 55.5941H124.277V57.3883H132.225C132.425 57.3931 132.614 57.4766 132.752 57.6208C132.823 57.6885 132.88 57.7707 132.919 57.8612C132.958 57.9522 132.978 58.0497 132.978 58.1486V61.8742C132.977 61.9731 132.957 62.0707 132.918 62.1612C132.879 62.2517 132.823 62.3339 132.752 62.402C132.614 62.5462 132.425 62.6297 132.225 62.6345H124.277V64.4391H133.083C133.282 64.4439 133.472 64.5274 133.609 64.6716C133.68 64.7397 133.737 64.8219 133.776 64.9124C133.815 65.003 133.835 65.1005 133.836 65.199V69.2419C133.835 69.3403 133.814 69.4379 133.775 69.5284C133.736 69.6189 133.68 69.7007 133.609 69.7697C133.47 69.9103 133.281 69.9916 133.083 69.9965L118.213 70.0545ZM138.41 70.0545C138.206 70.0518 138.011 69.9692 137.866 69.8242C137.722 69.6792 137.639 69.4836 137.637 69.2788V50.7758C137.641 50.5761 137.724 50.3863 137.868 50.248C137.936 50.1764 138.018 50.1194 138.108 50.0803C138.199 50.0413 138.296 50.0212 138.395 50.0211H146.859C149.606 50.0211 151.752 50.6386 153.296 51.8735C154.059 52.4824 154.666 53.2639 155.069 54.1538C155.471 55.0437 155.657 56.0166 155.612 56.9927C155.636 58.1416 155.351 59.2755 154.786 60.2753C154.228 61.2242 153.452 62.0258 152.523 62.613L156.044 69.1522C156.097 69.2476 156.126 69.3544 156.128 69.4634C156.128 69.6312 156.062 69.7925 155.943 69.9112C155.825 70.0299 155.664 70.0967 155.497 70.0967H149.648C149.358 70.1134 149.072 70.0277 148.838 69.8541C148.656 69.7165 148.513 69.535 148.422 69.3262L145.958 63.848H144.79V69.2999C144.782 69.5012 144.697 69.6915 144.553 69.8317C144.409 69.9723 144.217 70.0518 144.016 70.0545H138.41ZM146.875 58.3543C147.058 58.3653 147.241 58.3332 147.41 58.2611C147.579 58.1886 147.729 58.0779 147.848 57.9372C148.086 57.6384 148.207 57.2635 148.19 56.8818C148.198 56.4876 148.084 56.1005 147.864 55.7736C147.752 55.6177 147.603 55.4929 147.429 55.4108C147.257 55.3286 147.066 55.2918 146.875 55.3039H144.769V58.3438L146.875 58.3543ZM159.692 64.2598C159.593 64.2593 159.496 64.2387 159.406 64.1996C159.316 64.1609 159.234 64.1042 159.166 64.033C159.094 63.9644 159.037 63.8827 158.997 63.7922C158.957 63.7016 158.936 63.604 158.934 63.5052V59.4363C158.938 59.2315 159.021 59.0368 159.165 58.8923C159.309 58.7477 159.504 58.6646 159.708 58.6602H168.988C169.192 58.6646 169.386 58.7477 169.531 58.8923C169.675 59.0368 169.758 59.2315 169.762 59.4363V63.5104C169.76 63.6093 169.738 63.7069 169.698 63.7974C169.659 63.888 169.602 63.9697 169.53 64.0383C169.462 64.1095 169.38 64.1662 169.29 64.2048C169.2 64.244 169.102 64.2646 169.004 64.265L159.692 64.2598ZM132.146 99.4803C132.29 99.624 132.485 99.7062 132.688 99.7089H138.431C138.635 99.7075 138.829 99.6258 138.973 99.4816C139.117 99.3375 139.198 99.1424 139.2 98.9384V85.7708H143.937C144.136 85.7664 144.326 85.6829 144.463 85.5387C144.535 85.4702 144.591 85.3884 144.63 85.2979C144.669 85.2069 144.689 85.1094 144.69 85.0109V80.3932C144.689 80.2943 144.669 80.1967 144.63 80.1062C144.591 80.0156 144.535 79.9339 144.463 79.8653C144.326 79.7212 144.136 79.6377 143.937 79.6333H127.177C126.973 79.6372 126.779 79.7203 126.635 79.8649C126.49 80.0095 126.408 80.2046 126.403 80.409V85.0267C126.408 85.2311 126.49 85.4262 126.635 85.5708C126.779 85.7154 126.973 85.7985 127.177 85.8024H131.915V98.9384C131.919 99.1424 132.002 99.3366 132.146 99.4803ZM148.107 99.4816C148.25 99.6258 148.445 99.7075 148.648 99.7089H154.486C154.689 99.7062 154.884 99.624 155.028 99.4803C155.173 99.3366 155.256 99.1424 155.26 98.9384V80.409C155.256 80.2046 155.173 80.0095 155.029 79.8649C154.885 79.7203 154.69 79.6372 154.486 79.6333H148.648C148.445 79.6372 148.251 79.7203 148.108 79.8653C147.964 80.0099 147.883 80.2051 147.88 80.409V98.9384C147.881 99.1424 147.963 99.3375 148.107 99.4816ZM161.718 98.0199C163.417 99.3392 165.698 99.9989 168.562 99.9989C171.414 99.9989 173.69 99.3392 175.389 98.0199C177.087 96.7005 177.995 94.7777 178.11 92.2515C178.163 91.2228 178.163 90.3941 178.163 89.7608V89.7605C178.163 89.1272 178.147 88.2618 178.11 87.2062C178.09 85.7022 177.636 84.2365 176.805 82.9844C175.976 81.7828 174.819 80.8463 173.473 80.2877C170.307 79.065 166.801 79.065 163.635 80.2877C162.288 80.8463 161.132 81.7828 160.303 82.9844C159.471 84.2356 159.019 85.7027 159.002 87.2062C158.971 87.7446 158.971 88.6156 158.971 89.7605C158.971 90.4425 158.982 91.0084 158.991 91.4661V91.4663V91.4665V91.4669V91.4673C158.997 91.7777 159.002 92.0383 159.002 92.2515C159.115 94.7777 160.02 96.7005 161.718 98.0199ZM169.385 94.2789C169.123 94.3778 168.842 94.4209 168.562 94.4051C168.28 94.4213 167.999 94.3787 167.735 94.2794C167.471 94.1805 167.231 94.0271 167.03 93.8298C166.619 93.3437 166.408 92.7192 166.44 92.0828C166.414 91.5286 166.414 90.716 166.414 89.6445C166.414 89.0156 166.423 88.4866 166.431 88.0502V88.05L166.431 88.0493L166.431 88.0481C166.436 87.7421 166.44 87.4816 166.44 87.2642C166.408 86.6239 166.625 85.9958 167.046 85.5124C167.466 85.145 168.004 84.9424 168.562 84.9424C169.119 84.9424 169.658 85.145 170.077 85.5124C170.494 85.9976 170.709 86.6247 170.678 87.2642C170.735 88.2988 170.735 89.1272 170.735 89.6445C170.735 90.1618 170.714 90.9744 170.678 92.0828C170.71 92.7192 170.499 93.3437 170.088 93.8298C169.888 94.0267 169.648 94.18 169.385 94.2789ZM182.09 99.4553C182.234 99.5994 182.429 99.6812 182.632 99.6825L187.791 99.7089C187.994 99.7062 188.189 99.624 188.333 99.4803C188.477 99.3366 188.56 99.1424 188.564 98.9384V91.7237L193.396 99.0334C193.513 99.2096 193.659 99.3647 193.828 99.4922C194.045 99.6421 194.307 99.7128 194.57 99.693H199.087C199.185 99.6917 199.282 99.6711 199.372 99.6319C199.463 99.5933 199.545 99.5366 199.613 99.4658C199.684 99.3977 199.741 99.3155 199.78 99.225C199.818 99.1344 199.839 99.0369 199.839 98.9384V80.3932C199.839 80.2943 199.818 80.1967 199.78 80.1062C199.741 80.0156 199.684 79.9339 199.613 79.8653C199.475 79.7212 199.286 79.6377 199.087 79.6333H193.912C193.708 79.6372 193.514 79.7203 193.37 79.8649C193.225 80.0095 193.142 80.2046 193.138 80.409V88.2407L188.306 80.293C188.195 80.086 188.027 79.9146 187.824 79.7981C187.62 79.6816 187.388 79.6245 187.154 79.6333H182.632C182.429 79.6372 182.234 79.7203 182.091 79.8653C181.948 80.0099 181.866 80.2051 181.864 80.409V98.9116C181.865 99.1155 181.946 99.3111 182.09 99.4553ZM207.361 99.1388C209.007 99.7348 210.749 100.017 212.499 99.9726L212.52 99.9989C214.172 100.037 215.817 99.7704 217.373 99.2127C218.695 98.745 219.866 97.928 220.763 96.8482C221.579 95.8391 222.015 94.5743 221.995 93.2756C222.041 92.1663 221.769 91.0676 221.211 90.109C220.597 89.1843 219.712 88.4728 218.679 88.072C217.206 87.4918 215.662 87.1156 214.089 86.953C213.237 86.877 212.398 86.6999 211.588 86.4252C211.141 86.2353 210.915 85.9927 210.915 85.7075C210.915 85.1691 211.372 84.9054 212.288 84.9054C212.842 84.8861 213.382 85.0742 213.804 85.4333C213.96 85.5787 214.137 85.6983 214.331 85.7866C214.53 85.8648 214.743 85.9009 214.957 85.8921H220.7C220.779 85.8908 220.856 85.8732 220.928 85.8407C220.999 85.8077 221.063 85.7607 221.116 85.7022C221.175 85.6447 221.222 85.5761 221.254 85.4996C221.285 85.4236 221.301 85.3414 221.3 85.2588C221.213 84.2572 220.813 83.3083 220.158 82.5462C219.319 81.5358 218.247 80.7443 217.036 80.2402C215.541 79.5977 213.925 79.2843 212.299 79.3217C210.742 79.2927 209.196 79.5762 207.751 80.1558C206.53 80.6345 205.466 81.4436 204.677 82.4935C203.944 83.4828 203.556 84.6861 203.571 85.9185C203.571 89.4933 206.028 91.6042 210.941 92.2515C211.935 92.3469 212.919 92.5249 213.883 92.7847C214.394 92.9692 214.652 93.2334 214.652 93.5762C214.652 93.8227 214.457 94.0179 214.068 94.162C213.558 94.3246 213.023 94.398 212.488 94.3783C211.732 94.4064 210.989 94.1735 210.383 93.7186C210.206 93.5617 210.008 93.432 209.793 93.3336C209.588 93.2584 209.369 93.2241 209.151 93.2334H203.713C203.631 93.2321 203.549 93.2479 203.473 93.2795C203.397 93.3112 203.328 93.3582 203.272 93.418C203.213 93.476 203.167 93.545 203.135 93.621C203.103 93.697 203.087 93.7788 203.087 93.8614C203.126 94.9729 203.517 96.0431 204.203 96.9168C205.032 97.9342 206.125 98.7029 207.361 99.1388ZM67.8113 99.4235C68.0504 99.6252 68.3575 99.7272 68.6691 99.7087H75.1914C75.5027 99.725 75.8091 99.6235 76.0493 99.4235C76.2501 99.2481 76.3978 99.0196 76.4758 98.7638L81.8816 80.4932V80.2928C81.8803 80.1263 81.8141 79.9667 81.6971 79.8481C81.58 79.7298 81.4213 79.6622 81.2552 79.6595H75.9336C75.621 79.6433 75.3142 79.7474 75.0753 79.9496C74.8749 80.1263 74.7255 80.3544 74.6439 80.6093L71.9279 91.2753L69.2114 80.6093C69.1342 80.3451 68.9848 80.1074 68.78 79.9232C68.5411 79.7202 68.2343 79.6164 67.9219 79.6331H62.6317C62.5481 79.6323 62.4653 79.649 62.3883 79.6815C62.3114 79.714 62.2419 79.7624 62.1843 79.823C62.1251 79.8806 62.0782 79.9496 62.0466 80.0256C62.0149 80.1017 61.999 80.1838 62 80.2665V80.4669L67.3797 98.7638C67.4615 99.0187 67.6107 99.2468 67.8113 99.4235ZM85.4858 99.6481C85.5761 99.6872 85.6734 99.7078 85.7716 99.7087L100.663 99.6929C100.866 99.6916 101.061 99.6098 101.205 99.4657C101.349 99.3215 101.43 99.1264 101.431 98.9225V94.8743C101.431 94.7759 101.41 94.6783 101.371 94.5878C101.332 94.4972 101.276 94.415 101.205 94.3469C101.137 94.2757 101.055 94.219 100.965 94.1799C100.875 94.1408 100.777 94.1206 100.679 94.1197H91.8669V92.2883H99.8051C100.008 92.287 100.203 92.2053 100.347 92.0611C100.491 91.917 100.572 91.7218 100.574 91.5179V87.7866C100.573 87.6882 100.552 87.5906 100.513 87.5001C100.475 87.4091 100.418 87.3273 100.347 87.2592C100.279 87.1876 100.197 87.13 100.107 87.09C100.017 87.0505 99.9195 87.0289 99.8209 87.0267H91.8669V85.2217H100.463C100.561 85.2213 100.659 85.2006 100.749 85.162C100.84 85.1229 100.921 85.0662 100.99 84.995C101.133 84.8565 101.217 84.6671 101.221 84.4671V80.4247C101.217 80.2203 101.134 80.0252 100.99 79.8806C100.846 79.736 100.651 79.6529 100.447 79.649H85.7716C85.673 79.6507 85.5756 79.6723 85.4853 79.7123C85.395 79.7523 85.3135 79.8094 85.2451 79.881C85.1741 79.9496 85.1176 80.0313 85.079 80.1219C85.04 80.2128 85.0194 80.31 85.0189 80.4089V98.9541C85.0194 99.0526 85.04 99.1501 85.079 99.2407C85.1176 99.3316 85.1741 99.4134 85.2451 99.4815C85.3135 99.5527 85.3955 99.6094 85.4858 99.6481ZM105.427 99.4802C105.571 99.6239 105.765 99.7061 105.969 99.7087H111.148C111.352 99.7074 111.546 99.6257 111.691 99.4815C111.834 99.3374 111.916 99.1422 111.917 98.9383V91.7394L116.755 99.0332C116.871 99.2081 117.015 99.3633 117.181 99.4921C117.401 99.641 117.664 99.7118 117.928 99.6929H122.424C122.522 99.6929 122.62 99.6727 122.71 99.6336C122.801 99.5945 122.882 99.5373 122.95 99.4657C123.022 99.3976 123.079 99.3158 123.119 99.2253C123.159 99.1348 123.18 99.0372 123.182 98.9383V80.4089C123.18 80.31 123.159 80.212 123.119 80.1214C123.079 80.0309 123.022 79.9491 122.95 79.881C122.883 79.809 122.801 79.7509 122.71 79.7109C122.62 79.6709 122.522 79.6499 122.424 79.649H117.249C117.05 79.6534 116.861 79.7369 116.723 79.881C116.652 79.9496 116.595 80.0313 116.556 80.1219C116.518 80.2128 116.497 80.31 116.497 80.4089V88.2406L111.664 80.2928C111.551 80.0832 111.38 79.91 111.173 79.7931C110.965 79.6762 110.728 79.6208 110.49 79.6331H105.969C105.765 79.6371 105.57 79.7202 105.426 79.8648C105.282 80.0094 105.199 80.2045 105.195 80.4089V98.9383C105.199 99.1422 105.282 99.3365 105.427 99.4802ZM63.3457 69.8237C63.4903 69.9687 63.6855 70.0514 63.8899 70.054H69.7274C69.926 70.0505 70.1149 69.9687 70.2539 69.8272C70.3244 69.7587 70.3806 69.6765 70.4196 69.5859C70.4581 69.4954 70.4788 69.3978 70.4801 69.2994V50.7754C70.4788 50.6768 70.4581 50.5795 70.4196 50.4889C70.3806 50.3983 70.3244 50.3163 70.2539 50.2476C70.1855 50.1765 70.104 50.1197 70.0137 50.0808C69.9234 50.0418 69.826 50.0213 69.7274 50.0207H63.8741C63.7757 50.0213 63.6784 50.0418 63.588 50.0808C63.4976 50.1197 63.4159 50.1765 63.3477 50.2476C63.2038 50.3859 63.1206 50.5757 63.1161 50.7754V69.2783C63.1188 69.4831 63.2012 69.6791 63.3457 69.8237ZM74.9894 69.8237C75.1341 69.9687 75.3292 70.0514 75.5334 70.054H80.7288C80.927 70.05 81.1159 69.9683 81.2553 69.8272C81.3259 69.7587 81.382 69.6765 81.421 69.5859C81.4596 69.4954 81.4806 69.3978 81.4815 69.2994V62.1009L86.3192 69.3943C86.434 69.5706 86.5782 69.7261 86.7457 69.8536C86.9644 69.9995 87.2252 70.0698 87.4878 70.054H92.0095C92.2045 70.0439 92.3891 69.9604 92.5263 69.8211C92.6635 69.6813 92.7441 69.4954 92.7516 69.2994V50.7754C92.7472 50.5757 92.6639 50.3859 92.5201 50.2476C92.4518 50.1765 92.3702 50.1197 92.2795 50.0808C92.1892 50.0418 92.0919 50.0213 91.9937 50.0207H86.8141C86.7154 50.0217 86.6186 50.0422 86.5278 50.0812C86.4375 50.1201 86.356 50.1767 86.2876 50.2476C86.217 50.3163 86.1609 50.3983 86.1219 50.4889C86.0829 50.5795 86.0623 50.6768 86.0614 50.7754V58.6021L81.2079 50.6804C81.0962 50.4703 80.9265 50.2966 80.7196 50.1797C80.5127 50.0628 80.2764 50.0077 80.0393 50.0207H75.5176C75.4195 50.0213 75.3221 50.0418 75.2314 50.0808C75.1411 50.1197 75.0596 50.1765 74.9912 50.2476C74.8474 50.3859 74.7641 50.5757 74.7597 50.7754V69.2783C74.7624 69.4831 74.8448 69.6791 74.9894 69.8237Z" fill="white"/>
</svg>
